!!!COM: Gabriel Faure/
!!!CNT: Francais
!!!TXO: Francais
!!!OTL: "Green"
!!!LYR: Verlaine
!!!OPR: Cinq Me/lodies
!!!OPS: Op. 58
!!!ONM: No. 3
!!!ENC: Emily Thomas
!!!YOR: CD Sheet Music French Art Songs, The Ultimate Collection
!!!YOR: CD Sheet Music, LLC 2003
!!!ODT: 1891/
!!NB: Vocal melody and text encoded.
**kern	**silbe
=1	=1
*clefG2	*
*k[b-e-a-d-g-c-]	*
*M3/4	*
*MM[Andante con moto]	*
4r	.
4r	.
16r	.
{16b-	{Voi-
16b-	-ci
16g-	des
=2	=2
8.a-}	fruits,}
{16g-	{des
8.b-}	fleurs,}
{16b-	{des
16d-	feuil-
16b-	-les
16cn	et
16a-	des
=3	=3
8.b-	bran-
16f	|
[4f	-ches...
8f]}	|}
16r	.
{16ddn	{Et
=4	=4
16ee-	puis
16b-	voi-
16gn	-ci
16e-	mon
9f	Coeur
16gn	qui
16dn	ne
8e-	bat
16f	que
16g-	pour
=5	=5
[4g-	vous...
8g-]}	|}
8r	.
16r	.
{16cc-	{Ne
16b-	le
16g-	de/-
=6	=6
8.a-	-chi-
16b-	-rez
8.cc-	pas
16cc-	a-
16dd-	-vec
16ee-	vox
16cc-	deux
16dd-	mains
=7	=7
4ee-	blan-
4dd-}	-ches,}
16r	.
{16dd-	{Et
16ee-	qu'a\
16ff	vos
=8	=8
8.gg-	yeux
16b-	si
4a-}	beaux,}
{8b-	{l'hum-
16cc-	-ble
16dd-	pre/-
=9	=9
4.dd-	-sent
8dd-	soit
[4dd-	doux!
=10	=10
4dd-_	|
8dd-]}	|}
8r	.
4r	.
=11	=11
8r	.
{8f#	{Jíar-
4an	-ri-
8f#	-ve
16gn	tout
16an	cou-
=12	=12
8.bn	-vert
16bn	en-
[4bn	-co-
16bn]	|
16a#	-re
16bn	de
16cc#	ro-
=13	=13
4cc#	=se/-
8cc#}	-e,}
8r	.
{8.ddn	{Que
16ddn	le
=14	=14
8ee-	vent
16ddn	du
16ccn	ma-
4b-	-tin
8.b-	vient
16dd-	gla-
=15	=15
8cc-	-cer
16b-	a\
16a-	mon
[4g-	front.
16g-]}	|}
16r	.
{8g-	{Souf-
=16	=16
16g-	-frez
16g-	que
16a-	ma
16a-	fa-
8b-	-tigue
16a-	a\
16b-	vos
8ccn	pieds
16b-	re-
16ccn	-po-
=17	=17
4b-	-se/-
2a-}	-e}
=18	=18
{4ff-	{Re^-
8ff-	-ve
8dd-	des
8ee-	chers
8cc-	ins-
=19	=19
4.a-}	-tants}
{8a-	{qui
8b-	la
8cc-	de/-
=20	=20
8.ffn	-las-
16ee-	-se-
[2f	-ront.
=21	=21
4f_	|
8f]}	|}
8r	.
4r	.
=22	=22
2.r	.
=23	=23
8r	.
{8b-	{Sur
8.b-	vo-
16g-	-tre
8.a-	jeu-
16g-	-ne
=24	=24
8.b-	sein,
16b-	lais-
4dd-	-sez
12ccn	rou-
12b-	-ler
12a-	ma
=25	=25
8.b-	te^-
16f	|
4f}	-te}
{8dd-	{Tou-
16ddn	-te
16ddn	so-
=26	=26
8.ee-	-nore
16b-	en-
8gn	-cor
8g-	de
8ee-	vos
8b-	der-
=27	=27
8.dd-	-niers
16b-	bai-
4a-}	-sers,}
{8.an	{Lais-
16an	-sez-
=28	=28
12een	la
12ddn	s'a-
12cc#	-pai-
12cc#	-ser
12bn	de
12an	la
12g#	bon-
12f#	-ne
12en	tem-
=29	=29
4en	-pe^-
2c#}	-te.}
=30	=30
4r	.
4r	.
8a	.
{8an	{Et
=31	=31
8b-	que
8dd-	je
4.b-	dorme
8g-	un
=32	=32
2f-}	peu,}
{8ff-	{Puis-
8b--	-que
=33	=33
4b-	vous
4.dd-	re-
8b-	-po-
=34	=34
[2.b-	-sez.
=35	=35
4b-_	|
8b-]}	|}
8r	.
4r	.
==	==
*-	*-
